X: 11141
T: When she cam ben she bobed
%R: air, waltz
B: James Oswald "The Caledonian Pocket Companion" v.1 b.1 p.14 (and top 8 staffs of p.15)
Z: 2020 John Chambers <jc:trillian.mit.edu>
M: 3/4
L: 1/8
K: Gdor
"_Slow"D2 |\
G3 A G2 | B3 dcB | A2 (GF)(FG) | F4 (TB>A) |\
G3 A G2 | g3 bag | {g}f2 {e}d2 (de) | d4 (B/c/d/_e/) |\
f2 B2 f2 | Tf3 _e d2 | c2 f2 (TcB) | (A2 B2) c2 |
d3 _e d2 | c3 edc | {c}B2 (AG)(GA) | G4 :: (G/A//B//c//d//e//^f//) |\
g3 a g2 | (g2 a2) b2 | Ta2 (gf) f2 | (fgf)ga^f |\
g2 G2 g2 | (g=fe)fga |
{g}f2 {e}d2 (de) | d4 (B/c/d/_e/) |\
f2 B2 f2 | Tf3 _e d2 | c2 f2 ({d}cB) | A2 B2 c2 |\
d4 D2 | d3 _edc | TB2 (AG)(GA) | G4 :: D2 |\
G2 B4- | B2 (cB)(AG) | A2 F2 c2 |
(dc)(BA) (GF) |\
G2 B2 d2 | g2 d2 (ga) | Tf2 d2 (d_e) | d4 (3(cBA) |\
(B2 d2) f2 | (f2 b2) d2 | c2 A2 f2- | f2 (dc)(BA) |\
(B2 g2) B2 | A2 a2 ^f2 | g2 (dc)(BA) | G4 :|
|: d2 |\
(g^fg)aga | (ba)(ga)b2 | a2 (gf)(dc) | TA2 (GF) a2 |\
gdBd g2- | g2 (ag)(^fe) | (^f2 d2) A2 | (^F2 D2) g2 |\
=fdBd f2- | f2 (_ed)(cB) | c2 (BA)(GF) |
c2 (dc)(BA) |\
(BAG)ABc | dDFAdc | {c}B2 (AG)(GA) | G4 :: D2 |\
(G^FG)ABc | (dcB)cdB | A2 (GF) f2 | F3 GAF |\
(G^FG)ABc |
(dcd)efg | Tf2 d2 (d_e) | d4 c2 |\
(BAB)cde | (fef)FAF | (fef)FAF | (AGA)BcA |\
(Bdc)_edc | dDFAdc | B2 (AG)(GA) |
G4 :: (d/e/^f) |\
(g^fg)GBG | (g^fg)bag | (aga)FAF | (fef)ga^f |\
gGBGgG | (gfe)fga | {g}Tf2 {e}d2 (d_e) | d4 c2 |
Bd/_e/ fdBd | (Bdf)dBf | (A/c/B/A/) fcAf | (Acf)cAf |\
(B>d)(c>_e)(d>a) | (bag)^fgd | {c}B2 (AG)(GA) | G4 :|
